!!!COM: Palestrina, Giovanni Perluigi da
!!!OPR: Missa Confitebor tibi
!!!OMD: Sanctus
!!!OTL: Hosanna
**kern	**kern	**kern	**kern	**kern	**kern	**kern	**kern
*Ibass	*Itenor	*Icalto	*Icant	*Ibass	*Itenor	*Icalto	*Icant
!Bassus	!Tenor	!Altus	!Cantus	!Bassus	!Tenor	!Altus	!Cantus
*clefF4	*clefGv2	*clefG2	*clefG2	*clefF4	*clefGv2	*clefG2	*clefG2
*k[b-]	*k[b-]	*k[b-]	*k[b-]	*k[b-]	*k[b-]	*k[b-]	*k[b-]
*G:dor	*G:dor	*G:dor	*G:dor	*G:dor	*G:dor	*G:dor	*G:dor
*M3/2	*M3/2	*M3/2	*M3/2	*M3/2	*M3/2	*M3/2	*M3/2
=77	=77	=77	=77	=77	=77	=77	=77
1r	1r	1r	1r	1r	1r	1g	1r
2r	2r	2r	2r	2r	2r	2d	2r
=78	=78	=78	=78	=78	=78	=78	=78
1r	1r	1r	1r	1r	1r	1g	1dd
2r	2r	2r	2r	2r	2r	2f	2a
=79	=79	=79	=79	=79	=79	=79	=79
1r	1r	1r	1r	1r	1d	2b-	1dd
.	.	.	.	.	.	4a	.
.	.	.	.	.	.	4g	.
2r	2r	2r	2r	2r	2A	[2a	2cc
=80	=80	=80	=80	=80	=80	=80	=80
1r	1r	1r	1r	1r	1d	4a]	1ff
.	.	.	.	.	.	4g	.
.	.	.	.	.	.	2f	.
2r	2r	2r	2r	2r	2c	2g	2ee
=81	=81	=81	=81	=81	=81	=81	=81
1r	1r	1r	1r	1r	2f	2a	1dd
.	.	.	.	.	1e	2.g	.
2r	2r	2r	2r	2r	.	.	2cc
.	.	.	.	.	.	4a	.
=82	=82	=82	=82	=82	=82	=82	=82
1r	1r	1r	1r	1G	1.d	1b-	2dd
.	.	.	.	.	.	.	2g
2r	2r	2r	2r	2D	.	2a	2f
=83	=83	=83	=83	=83	=83	=83	=83
1r	1r	1r	1r	1G	1d	1g	1b-
2r	2r	2r	2r	2F	2f	2a	2cc
=84	=84	=84	=84	=84	=84	=84	=84
1r	1r	1r	1r	2.B-	2.f	1b-	4dd
.	.	.	.	.	.	.	4cc
.	.	.	.	.	.	.	4dd
.	.	.	.	8A	4g	.	4ee
.	.	.	.	8G	.	.	.
2r	2r	2r	2r	2F	2a	[2cc	2ff
=85	=85	=85	=85	=85	=85	=85	=85
1r	1r	1r	1r	2c	1g	4cc]	2ee
.	.	.	.	.	.	4b-	.
.	.	.	.	1d	.	1a	1dd
2r	2r	2r	2r	.	2f#	.	.
=86	=86	=86	=86	=86	=86	=86	=86
1G	1d	1g	1b-	2G	2g	2g	2dd
.	.	.	.	2r	2r	2r	2r
2D	2d	2f	2a	2r	2r	2r	2r
=87	=87	=87	=87	=87	=87	=87	=87
1G	1d	1g	1b-	1r	1r	1r	1r
2F	2f	2a	2cc	2r	2r	2r	2r
=88	=88	=88	=88	=88	=88	=88	=88
1B-	4f	2b-	1dd	1r	1r	1r	1r
.	4e	.	.	.	.	.	.
.	4d	4f	.	.	.	.	.
.	4e	4g	.	.	.	.	.
2F	4f	4a	2cc	2r	2r	2r	2r
.	4g	4g	.	.	.	.	.
=89	=89	=89	=89	=89	=89	=89	=89
2D	2a	4f	2dd	1r	1r	1r	1r
.	.	4e	.	.	.	.	.
1G	2g	2d	4b-	.	.	.	.
.	.	.	4cc	.	.	.	.
.	[2d	2g	4dd	2r	2r	2r	2r
.	.	.	4ee	.	.	.	.
=90	=90	=90	=90	=90	=90	=90	=90
1D	4d]	1.a	2ff	1d	1f	1a	1dd
.	4e	.	.	.	.	.	.
.	2f	.	2dd	.	.	.	.
2A	2e	.	2cc#	2A	2a	2a	2ee
=91	=91	=91	=91	=91	=91	=91	=91
1D	1d	1a	1dd	1d	2a	4f	1ff
.	.	.	.	.	.	4g	.
.	.	.	.	.	2f	4a	.
.	.	.	.	.	.	4b-	.
2r	2r	2r	2r	2c	2g	2cc	2ee
=92	=92	=92	=92	=92	=92	=92	=92
1r	1r	1a	1r	1F	2a	2cc	2.ff
.	.	.	.	.	2f	2.cc	.
.	.	.	.	.	.	.	8ee
.	.	.	.	.	.	.	8dd
2r	2r	2e	2r	2C	2g	.	2ee
.	.	.	.	.	.	4b-	.
=93	=93	=93	=93	=93	=93	=93	=93
1d	1r	1a	1dd	1D	1f	4a	2ff
.	.	.	.	.	.	4g	.
.	.	.	.	.	.	2f	2dd
2A	2r	2a	2ee	2A	2e	2a	2cc#
=94	=94	=94	=94	=94	=94	=94	=94
1d	1a	4f	2ff	1D	1d	1a	1dd
.	.	4g	.	.	.	.	.
.	.	4a	2f	.	.	.	.
.	.	4b-	.	.	.	.	.
2c	2e	2cc	2g	2r	2r	2r	2r
=95	=95	=95	=95	=95	=95	=95	=95
2.F	1a	2cc	4f	1r	1r	1r	1r
.	.	.	4g	.	.	.	.
.	.	1c	4a	.	.	.	.
4G	.	.	4b-	.	.	.	.
2A	2f	.	4cc	2r	2r	2r	2r
.	.	.	4a	.	.	.	.
=96	=96	=96	=96	=96	=96	=96	=96
2.G	2.g	2d	1.b-	2r	1r	1r	1dd
.	.	1g	.	1G	.	.	.
4A	8f	.	.	.	.	.	.
.	8e	.	.	.	.	.	.
4B-	[2d	.	.	.	2r	2r	2g
4c	.	.	.	.	.	.	.
=97	=97	=97	=97	=97	=97	=97	=97
1d	2d]	2f	[1.a	2D	1r	1a	2dd
.	1A	1e	.	1A	.	.	2ee
2c#	.	.	.	.	2r	2e	2ee
=98	=98	=98	=98	=98	=98	=98	=98
1d	2.f	1.d	1.a]	2.D	1d	1.a	2.ff
.	4g	.	.	4E	.	.	4ee
2D	2a	.	.	2F	2A	.	4dd
.	.	.	.	.	.	.	4cc
=99	=99	=99	=99	=99	=99	=99	=99
1r	1r	1r	1r	2G	1d	2g	2b-
.	.	.	.	2D	.	2.f	4a
.	.	.	.	.	.	.	4g
2r	2r	2r	2r	[2F	2c	.	2a
.	.	.	.	.	.	4g	.
=100	=100	=100	=100	=100	=100	=100	=100
2r	2r	2r	2r	4F]	2f	1a	1dd
.	.	.	.	4G	.	.	.
2r	2r	2r	2r	1A	1e	.	.
2A	2a	2a	2ee	.	.	2a	2cc#
=101	=101	=101	=101	=101	=101	=101	=101
2.d	2a	2f	2.ff	1D	1d	1a	1dd
.	2f	2a	.	.	.	.	.
4d	.	.	4ff	.	.	.	.
2c	[2g	2cc	2ee	2r	2r	2r	2r
=102	=102	=102	=102	=102	=102	=102	=102
4G	2g]	2b-	4dd	1r	1r	1r	1r
4A	.	.	4cc	.	.	.	.
4B-	2.f	2b-	4dd	.	.	.	.
4c	.	.	4ee	.	.	.	.
2d	.	4a	2ff	2r	2r	2r	2r
.	4g	4b-	.	.	.	.	.
=103	=103	=103	=103	=103	=103	=103	=103
2A	4a	4cc	2ee	1r	1r	1r	1r
.	4g	4b-	.	.	.	.	.
2.d	4f	4a	2.ff	.	.	.	.
.	4e	4g	.	.	.	.	.
.	2d	2f	.	2r	2r	2r	2r
4c	.	.	4ee	.	.	.	.
=104	=104	=104	=104	=104	=104	=104	=104
2B-	2d	2g	1dd	2r	2r	2r	2r
1A	1e	1a	.	2r	2r	2r	2r
.	.	.	2cc#	2A	2a	2a	2ee
=105	=105	=105	=105	=105	=105	=105	=105
1D	1d	1a	1dd	2.d	2a	2f	2.ff
.	.	.	.	.	2f	2a	.
.	.	.	.	4d	.	.	4ff
2r	2r	2r	2r	2c	[2g	2cc	2ee
=106	=106	=106	=106	=106	=106	=106	=106
1r	1r	1r	1r	4G	2g]	1b-	4dd
.	.	.	.	4A	.	.	4cc
.	.	.	.	4B-	2.f	.	4dd
.	.	.	.	4c	.	.	4ee
2r	2r	2r	2r	2d	.	4a	2ff
.	.	.	.	.	4g	4b-	.
=107	=107	=107	=107	=107	=107	=107	=107
1r	1r	1r	1r	2A	4a	4cc	2ee
.	.	.	.	.	4g	4b-	.
.	.	.	.	2.d	4f	4a	2.ff
.	.	.	.	.	4e	4g	.
2r	2r	2r	2r	.	2d	2f	.
.	.	.	.	4c	.	.	4ee
=108	=108	=108	=108	=108	=108	=108	=108
2r	2r	2r	2r	2B-	1g	2b-	2dd
2r	2r	2r	2r	2c	.	1a	2ee
2D	2d	2d	2a	2d	2f#	.	2dd
=109	=109	=109	=109	=109	=109	=109	=109
2.G	2B-	2d	2.b-	2r	2g	2g	1dd
.	2G	2g	.	2G	1d	2b-	.
4G	.	.	4b-	.	.	.	.
2D	2A	[2f	2dd	[2d	.	2a	[2ff
=110	=110	=110	=110	=110	=110	=110	=110
2D	2d	4f]	1a	4d]	2.f	2a	4ff]
.	.	4g	.	4d	.	.	4ff
1F	1c	2a	.	2A	.	2a	2cc
.	.	.	.	.	4f	.	.
.	.	2f	[2cc	2A	2c	2a	2cc
=111	=111	=111	=111	=111	=111	=111	=111
2C	1c	2g	4cc]	1c	2c	2g	1ee
.	.	.	4dd	.	.	.	.
2c	.	2e	4ee	.	1g	2c	.
.	.	.	4ff	.	.	.	.
2B	2d	2r	2gg	2G	.	2r	2dd
=112	=112	=112	=112	=112	=112	=112	=112
2c	2e	1g	1ee	2C	2g	2.e	2gg
2C	2c	.	.	2c	2r	.	2gg
.	.	.	.	.	.	4f	.
2G	2d	2g	2dd	2B	2G	2g	2gg
=113	=113	=113	=113	=113	=113	=113	=113
2C	2e	2g	1cc	1c	2c	1g	1ee
2C	2g	2e	.	.	2e	.	.
2F	2c	2a	2cc	2A	2f	2a	2cc
=114	=114	=114	=114	=114	=114	=114	=114
1D	2r	2f	1ff	2.d	2f	1a	1dd
.	2A	2d	.	.	1a	.	.
.	.	.	.	8c#	.	.	.
.	.	.	.	8B	.	.	.
2A	2A	2r	2ee	2c#	.	2e	2ee
=115	=115	=115	=115	=115	=115	=115	=115
2D	2A	2f	1dd	2d	2f	2a	2ff
2d	2f	2d	.	2D	2r	2f	2r
2c#	2e	2A	2ee	2A	2a	2r	2a
=116	=116	=116	=116	=116	=116	=116	=116
2d	2d	2f	2ff	2D	2f	2a	2a
2D	2A	2.a	1dd	2d	2d	2f	2ff
[2G	2B-	.	.	2B-	2d	2g	2dd
.	.	4g	.	.	.	.	.
=117	=117	=117	=117	=117	=117	=117	=117
2G]	2B-	1g	2.dd	2G	2d	2g	2b-
1D	1A	.	.	1d	1d	2a	1dd
.	.	.	4cc	.	.	.	.
.	.	2f#	2a	.	.	2d	.
=118	=118	=118	=118	=118	=118	=118	=118
1.G	1.G	1.g	1.b	1.G	1.B	1.d	1.dd
==	==	==	==	==	==	==	==
*-	*-	*-	*-	*-	*-	*-	*-
!!!CDT: 1525/^1526/-1594/2/2
!!!OCY: Italia
!!!AGN: Mass (Parody)
!!!AST: renaissance, vocal
!!!ASW: Motet 1572 (Palestrina)
!!!PWK: Masses, Book 8vce
!!!RNB: Cadence finals: D,Bb
!!!YOR: Le Opere Complete, v. 30, p. 163
!!!YOO: Rome, Italy: Fratelli Scalera
!!!END: 1992//
!!!EED: John Miller
!!!YEC: Copyright 2000, John Miller
!!!YEN: United States of America
!!!YEM: Rights to all derivative electronic formats reserved.
!!!YEM: Refer to licensing agreement for further details.
!!!YEM: This file must be accompanied by the licensing agreement.
!!!YEM: A copy of the licensing agreement may be found at http://www.music-cog.ohio-state.edu/HumdrumDatabases/Palestrina/license.txt
!!!EMD: converted to Humdrum by Bret Aarden
